X: 730
T: Within a Mile of Dublin   #3
R: reel
%S: s:2 b:16(4+6)
B: Francis O'Neill: "The Dance Music of Ireland" (1907) #730
Z: Frank Nordberg - http://www.musicaviva.com
F: http://www.musicaviva.com/abc/tunes/ireland/oneill-1001/0730/oneill-1001-0730-1.abc
N: Compacted via repeats and multiple endings [JC]
M: C|
L: 1/8
K: G
"^A"[|] (dB) |:: ADDE FEFG |[1,3 A>D (3DDD cABG :|[2 AdcA GcBc :|[4 AdcA G2 |]
"^B"|: FG |: Addc AGFG |[1 Adde fdec :|[2 ABcA G2 :|[3 Adde f2(3(efg) | afge fdec | dcAF G2 |]
